docs/public/img/adapters/edgedb.svg

<svg style="color:#1F8AED" width="140" height="114" viewBox="0 0 140 114" fill="none" xmlns="http://www.w3.org/2000/svg">
    <path fill-rule="evenodd" clip-rule="evenodd" d="M118.58 56.966C118.58 66.6274 114.706 68.3592 110.377 68.3592H101.171V45.5728H110.377C114.706 45.5728 118.58 47.3046 118.58 56.966ZM113.887 56.966C113.887 50.2212 111.836 49.9022 108.874 49.9022H106.003V64.0298H108.874C111.836 64.0298 113.887 63.7108 113.887 56.966ZM65.1234 68.3592V45.5728H79.6155V49.9022H69.9541V54.5507H77.2458V58.8345H69.9541V64.0298H79.6155V68.3592H65.1234ZM87.7282 113.932H92.5589V0H87.7282V113.932ZM128.242 58.242V64.0298H132.252C134.758 64.0298 135.396 62.3892 135.396 61.1587C135.396 60.2017 134.941 58.242 131.523 58.242H128.242ZM128.242 49.9022V54.2317H131.523C133.391 54.2317 134.485 53.4113 134.485 52.0442C134.485 50.677 133.391 49.9022 131.523 49.9022H128.242ZM123.411 45.5728H132.708C137.585 45.5728 139.043 48.9908 139.043 51.4517C139.043 53.7304 137.585 55.371 136.582 55.8267C139.499 57.2395 140 60.1105 140 61.5689C140 63.4829 139.043 68.3592 132.708 68.3592H123.411V45.5728ZM37.3702 56.966C37.3702 66.6274 33.4966 68.3592 29.1671 68.3592H19.9614V45.5728H29.1671C33.4966 45.5728 37.3702 47.3046 37.3702 56.966ZM51.5885 64.2121C54.0495 64.2121 55.3255 63.3918 55.7812 62.8449V60.3384H51.862V56.4191H59.6549V65.4881C58.9713 66.5363 55.2344 68.5871 51.8164 68.5871C46.211 68.5871 41.4714 66.3996 41.4714 56.7381C41.4714 47.0767 46.2565 45.345 50.5859 45.345C57.3763 45.345 59.0625 48.8996 59.6094 52.0442L55.5989 52.9556C55.3711 51.4973 54.095 49.6744 51.1784 49.6744C48.2162 49.6744 46.1654 49.9934 46.1654 56.7381C46.1654 63.4829 48.3073 64.2121 51.5885 64.2121ZM32.6756 56.966C32.6756 50.2212 30.6248 49.9022 27.6626 49.9022H24.7915V64.0298H27.6626C30.6248 64.0298 32.6756 63.7108 32.6756 56.966ZM0 68.3592V45.5728H14.4921V49.9022H4.83072V54.5507H12.1224V58.8345H4.83072V64.0298H14.4921V68.3592H0Z" fill="currentColor">
    </path>
</svg>

<svg xmlns="http://www.w3.org/2000/svg" fill="none" color="#1f8aed" viewBox="0 0 140 114"><path fill="currentColor" fill-rule="evenodd" d="M118.58 56.97c0 9.66-3.87 11.39-8.2 11.39h-9.2V45.57h9.2c4.33 0 8.2 1.73 8.2 11.4Zm-4.7 0c0-6.75-2.04-7.07-5-7.07H106v14.13h2.87c2.97 0 5.02-.32 5.02-7.06ZM65.13 68.36V45.57h14.5v4.33h-9.67v4.65h7.3v4.28h-7.3v5.2h9.67v4.33h-14.5Zm22.6 45.57h4.84V0h-4.83v113.93Zm40.52-55.69v5.79h4.01c2.5 0 3.15-1.64 3.15-2.87 0-.96-.46-2.92-3.88-2.92h-3.28Zm0-8.34v4.33h3.28c1.87 0 2.97-.82 2.97-2.19 0-1.36-1.1-2.14-2.97-2.14h-3.28Zm-4.83-4.33h9.3c4.88 0 6.33 3.42 6.33 5.88 0 2.28-1.45 3.92-2.46 4.38 2.92 1.41 3.42 4.28 3.42 5.74 0 1.91-.96 6.79-7.3 6.79h-9.29V45.57Zm-86.04 11.4c0 9.66-3.87 11.39-8.2 11.39h-9.2V45.57h9.2c4.33 0 8.2 1.73 8.2 11.4Zm14.22 7.24c2.46 0 3.74-.82 4.2-1.37v-2.5h-3.93v-3.92h7.8v9.07c-.69 1.05-4.43 3.1-7.84 3.1-5.6 0-10.35-2.19-10.35-11.85s4.79-11.4 9.12-11.4c6.79 0 8.47 3.56 9.02 6.7l-4.01.92c-.23-1.46-1.5-3.29-4.42-3.29-2.96 0-5.01.32-5.01 7.07 0 6.74 2.14 7.47 5.42 7.47Zm-18.91-7.24c0-6.75-2.06-7.07-5.02-7.07H24.8v14.13h2.87c2.96 0 5.02-.32 5.02-7.06ZM0 68.36V45.57h14.5v4.33H4.82v4.65h7.3v4.28h-7.3v5.2h9.66v4.33H0Z" clip-rule="evenodd"/></svg>
